dist/svg/edge.svg

<!-- Generated by Trend Micro Style Portal -->
<svg version="1.1" xmlns="http://www.w3.org/2000/svg" width="16" height="16" viewBox="0 0 16 16">
  <title>edge</title>
  <path fill="rgb(34,34,34)" d="M0 7.1c0.5-3.7 3-7.1 7.6-7.1 2.6 0 5.1 1.4 6.4 3.7 0.7 1.1 1 2.5 1 3.8v1.5h-10.2c0 4.1 6.2 4.2 9.2 2v3.7c-2.5 1.3-5.4 1.6-8.2 0.8-3.2-1.3-4.8-4.9-3.5-8.1 0.6-1.6 1.9-2.9 3.5-3.5-0.6 0.7-1 1.6-1.1 2.6h5.8c0.2-1.7-1-3.2-2.7-3.4-0.2 0-0.4 0-0.6 0-2.9 0.1-5.6 1.6-7.2 4v0 0z"></path>
</svg>

<svg width="16" height="16" viewBox="0 0 16 16" fill="rgb(34, 34, 34)" xmlns="http://www.w3.org/2000/svg"><title>edge</title><path d="M0 7.1C0.5 3.4 3 0 7.6 0C10.2 0 12.7 1.4 14 3.7C14.7 4.8 15 6.2 15 7.5V9H4.8C4.8 13.1 11 13.2 14 11V14.7C11.5 16 8.6 16.3 5.8 15.5C2.6 14.2 1 10.6 2.3 7.4C2.9 5.8 4.2 4.5 5.8 3.9C5.2 4.6 4.8 5.5 4.7 6.5H10.5C10.7 4.8 9.5 3.3 7.8 3.1C7.6 3.1 7.4 3.1 7.2 3.1C4.3 3.2 1.6 4.7 0 7.1Z" fill="rgb(34, 34, 34)" fill-opacity="1.00"/></svg>
